X:1
T:Sundown, 10.10.10 D
T:Sundown, 10.10.10 D
T:John Henry Gower, 1890
T:Public Domain Courtesy of the Cyber Hymnal™
C:John Henry Gower, 1890
Z:Public Domain
Z:Courtesy of the Cyber Hymnal™
%%score ( 1 2 ) 3
L:1/8
M:4/4
K:Ab
V:1 treble 
V:2 treble 
V:3 bass 
V:1
"^Voices in unison" E2 | A4 G4 | G4 F4 | F2 G2 F2 C2 | E8 | E4 F2 G2 | F2 E2 F2 G2 | A4 B4 | %8
 B6"^Voices in harmony" [Ac]2 | [Ae]4 [Ac]4 | [Gd]6 [GB]2 | [Ac]2 [Ac]2 A2 [AB]2 | [GB]8 | %13
 [FB]4 [GB]2 [FB]2 | [Ac]2 [Gc]2 [A=d]2 [Ge]2 | [EG]4 B4 | [GB]8 |!p! A4"^Unison" G2 G2 | G4 F4 | %19
 F2 G2 F2 C2 | E8 | E4 A2 c2 | E3 E F2"^Harmony" [DA]2 | [EA]4 [EB]4 | [EA]8 |] %25
V:2
 x2 | x8 | x8 | x8 | x8 | x8 | x8 | x8 | x8 | x8 | x8 | x4 A2 x2 | x8 | x8 | x8 | x4 G2 F2 | x8 | %17
 x8 | x8 | x8 | x8 | x8 | x8 | x8 | x8 |] %25
V:3
 E,2- | [A,,E,A,C]8- | [A,,E,A,C]8- | [A,,E,-A,C]8 | [B,,E,G,D]8 | [D,E,-G,B,E-]8 | [C,E,-A,-E]8 | %7
 [_C,E,A,E]4 [B,,-F,A,=D]4 | [B,,E,G,B,E]6 [A,E]2 | [CE]4 [A,E]4 | [B,E]6 [E,E]2 | %11
 [A,E]2 [G,E]2 [F,E]2 [B,,=D]2 | [E,E]8 | [B,=D]4 [E,E]2 [B,D]2 | [F,F]2 [CE]2 [B,F]2 [E,E]2 | %15
 [B,E]4 [B,,=D]4 | [E,E]8 | [A,,E,A,C]8- | [A,,E,A,C]8- | [A,,E,-A,C]8 | [B,,E,G,D]8 | %21
 [C,E,A,E]8- | [C,E,A,-E]4 [D,A,F]2 [F,A,]2 | [E,C]4 [E,D]4 | [A,,C]8 |] %25

